X:1126
T:Kiss my bonny mow.
M:2/4
L:1/8
Q:1/4=104
Z:Jack Campin * www.campin.me.uk * 2009
K:D
A/G/|FA  D```A/G/ |FA  DA   |dd e/d/c/B/|A2z
A/G/|FA  D```A    |FA  Dd/e/|fd d/c/B/A/|d3
d/e/|f>g`f```a    |e>f`ea   |dB e/f/g/e/|dcz
B/c/|dA  A```d/=c/|BG Hge   |fd d/c/B/A/|d2z
d/e/|fd  d/e/f/d/ |g3   f/e/|fd d/e/f/d/|g3
e   |fd  B```e/f/ |ge  cB/A/|ad e/d/e/f/|d3|]

